polaris-icons/icons/newicons/PasskeyMajor-1.svg

<svg width="20" height="20" viewBox="0 0 20 20" fill="none" xmlns="http://www.w3.org/2000/svg">
<path fill-rule="evenodd" clip-rule="evenodd" d="M6.5 6.5C6.5 4.567 8.067 3 10 3C11.933 3 13.5 4.567 13.5 6.5C13.5 8.433 11.933 10 10 10C8.067 10 6.5 8.433 6.5 6.5ZM10 4.5C8.89543 4.5 8 5.39543 8 6.5C8 7.60457 8.89543 8.5 10 8.5C11.1046 8.5 12 7.60457 12 6.5C12 5.39543 11.1046 4.5 10 4.5Z" fill="black"/>
<path d="M3.62342 13.0958C5.08151 11.7483 6.99392 11 8.97927 11H10.8152C11.2294 11 11.5652 11.3358 11.5652 11.75C11.5652 12.1642 11.2294 12.5 10.8152 12.5H8.97927C7.37129 12.5 5.8224 13.1061 4.64146 14.1974C4.55128 14.2807 4.5 14.3979 4.5 14.5207V14.6848C4.5 15.135 4.86499 15.5 5.31522 15.5H12.25C12.6642 15.5 13 15.8358 13 16.25C13 16.6642 12.6642 17 12.25 17H5.31522C4.03656 17 3 15.9634 3 14.6848V14.5207C3 13.9796 3.22599 13.463 3.62342 13.0958Z" fill="black"/>
<path fill-rule="evenodd" clip-rule="evenodd" d="M15.5 9.25C14.1193 9.25 13 10.3693 13 11.75V12.85C13 13.3471 13.4029 13.75 13.9 13.75H14C14.2761 13.75 14.5 13.9739 14.5 14.25V16.8246C14.5 16.9381 14.5386 17.0483 14.6096 17.137L15.2042 17.8803C15.3701 18.0877 15.6692 18.1292 15.8853 17.9748L16.6605 17.4211C16.9452 17.2177 16.9384 16.7923 16.6472 16.5982L16.4844 16.4896C16.1855 16.2903 16.2466 15.8345 16.5874 15.7209C16.8918 15.6194 16.983 15.233 16.7561 15.0061L16.3964 14.6464C16.3027 14.5527 16.25 14.4255 16.25 14.2929V14.25C16.25 13.9739 16.4739 13.75 16.75 13.75H17.1C17.5971 13.75 18 13.3471 18 12.85V11.75C18 10.3693 16.8807 9.25 15.5 9.25ZM16.25 11.5C16.25 11.9142 15.9142 12.25 15.5 12.25C15.0858 12.25 14.75 11.9142 14.75 11.5C14.75 11.0858 15.0858 10.75 15.5 10.75C15.9142 10.75 16.25 11.0858 16.25 11.5Z" fill="black"/>
</svg>

<svg viewBox="0 0 20 20" fill="none" xmlns="http://www.w3.org/2000/svg"><path fill-rule="evenodd" clip-rule="evenodd" d="M6.5 6.5a3.5 3.5 0 1 1 7 0 3.5 3.5 0 0 1-7 0Zm3.5-2a2 2 0 1 0 0 4 2 2 0 0 0 0-4Z" fill="#5C5F62"/><path d="M3.623 13.096a7.891 7.891 0 0 1 5.356-2.096h1.836a.75.75 0 0 1 0 1.5h-1.836a6.392 6.392 0 0 0-4.338 1.697.44.44 0 0 0-.141.324v.164c0 .45.365.815.815.815h6.935a.75.75 0 0 1 0 1.5h-6.935a2.315 2.315 0 0 1-2.315-2.315v-.164c0-.541.226-1.058.623-1.425Z" fill="#5C5F62"/><path fill-rule="evenodd" clip-rule="evenodd" d="M15.5 9.25a2.5 2.5 0 0 0-2.5 2.5v1.1a.9.9 0 0 0 .9.9h.1a.5.5 0 0 1 .5.5v2.575a.5.5 0 0 0 .11.312l.594.743a.5.5 0 0 0 .681.095l.775-.554a.5.5 0 0 0-.013-.823l-.163-.108a.432.432 0 0 1 .103-.77.432.432 0 0 0 .17-.714l-.36-.36a.5.5 0 0 1-.147-.353v-.043a.5.5 0 0 1 .5-.5h.35a.9.9 0 0 0 .9-.9v-1.1a2.5 2.5 0 0 0-2.5-2.5Zm.75 2.25a.75.75 0 1 1-1.5 0 .75.75 0 0 1 1.5 0Z" fill="#5C5F62"/></svg>
